X:1
T:Jesus Loves You
T:Virgil P. Cassaday, 1922
T:Jesus Loves You
T:Public Domain
T:Public Domain
C:Virgil P. Cassaday, 1922
Z:Public Domain
%%score ( 1 2 ) ( 3 4 )
L:1/8
M:4/4
K:Ab
V:1 treble 
V:2 treble 
V:3 bass 
V:4 bass 
V:1
 [CE][CF] | [CA]2 [CA]2 [CF][CE][EA][EB] | [Ec]2 [Ec]2 [Ec]2 [Fd][Ec] | %3
w: 1.~When your|life is bur- dened with a|load of care, And you|
w: 2.~When the|day is end- ed and the|sha- dows fall, And you|
w: 3.~When the|world has left you, and you|stand a- lone, And you|
 [EB]2 [EB]2 [EB][EG][EA][EB] | [Ec]6 [CE][CF] | [CA]2 [CA]2 [CF][CE][EA][EB] | %6
w: need a help- er good and|true; When your|soul is sink- ing in- to|
w: feel dis- cour- aged, sad and|blue; When the|lurk- ing tempt- er would your|
w: know not what is best to|do, Seek the|one true help- er whose great|
 [Ec]2 [_Ge]2 [Fd]2 [FA][_FB] | [Ec] [Ec]3 [Ed]2 [Ec]2 | [DB]4 [CA]2 ||"^Refrain" [CA][CF] | %10
w: dark des- pair, Oh, re-|mem- ber, Je- sus|loves you.||
w: life en- thrall, Oh, re-|mem- ber, Je- sus|loves you.|Oh, re-|
w: love is known— Oh, re-|mem- ber, Je- sus|loves you.||
 [DG] [DB]3 [DF]2 [DG]2 | [CA]2 [Ec]4 [Ec][Ec] | [EB] [Ed]3 [Ec]2 [EB]2 | (EGAB c2) [Ge][Gd] | %14
w: ||||
w: mem- ber, Je- sus|loves you, And He|ev- er watch- es|you; * * * * When the|
w: ||||
 [Ac]2 [Ac]2 [Ac][EA][_GB][Gc] | [Fd]2 [Fd]2 [DF]2 [FA][_FB] | [Ec] [Ec]3 [Ed]2 [Ec]2 | %17
w: |||
w: are long, And ev- ery- thing|goes wrong, Oh, re- mem-|ber, Je- sus loves|
w: |||
 [DB]4 [CA]2 |] %18
w: |
w: you. *|
w: |
V:2
 x2 | x8 | x8 | x8 | x8 | x8 | x8 | x8 | x6 || x2 | x8 | x8 | x8 | e6 x2 | x8 | x8 | x8 | x6 |] %18
w: ||||||||||||||||||
w: |||||||||||||days|||||
V:3
 [A,,A,][A,,A,] | [A,,E,]2 [A,,E,]2 [A,,A,][A,,A,][C,A,][E,G,] | A,2 A,2 A,2 A,A, | %3
w: ~ ~|~ ~ ~ ~ ~ ~|~ ~ ~ ~ ~|
 [E,G,]2 [E,G,]2 [E,D][E,D][E,D][E,G,] | A,6 [A,,A,][A,,A,] | %5
w: ~ ~ ~ ~ ~ ~|~ ~ ~|
 [A,,E,]2 [A,,E,]2 [A,,A,][A,,A,][C,A,][E,G,] | A,2 [C,A,]2 [D,A,]2 [D,A,][D,A,] | %7
w: ~ ~ ~ ~ ~ ~|~ ~ ~ ~ ~|
 [E,A,] [E,A,]3 [E,B,]2 [E,A,]2 | [E,G,]4 [A,,A,]2 || [A,,A,][A,,A,] | %10
w: ~ ~ ~ ~|~ ~|~ ~|
 [E,B,] [E,G,]3 [E,A,]2 [E,B,]2 | [A,,A,]2 [A,,A,]4 A,A, | [E,G,] [E,B,]3 [E,A,]2 [E,G,]2 | %13
w: ~ ~ ~ ~|~ ~ He wat-||
 [C,A,][E,B,][A,C][A,D] [A,E]2 [E,E][E,E] | [A,,E]2 [A,,E]2 [A,,E][A,,C][A,C]A, | %15
w: ||
 [D,A,]2 [D,A,]2 [D,A,]2 [D,A,][D,A,] | [E,A,] [E,A,]3 [E,B,]2 [E,A,]2 | [E,G,]4 [A,,A,]2 |] %18
w: |||
V:4
 x2 | x8 | A,2 A,2 A,2 A,A, | x8 | A,6 x2 | x8 | A,2 x6 | x8 | x6 || x2 | x8 | x6 A,A, | x8 | x8 | %14
w: ||~ ~ ~ ~ ~||~||~|||||ches you|||
 x7 A, | x8 | x8 | x6 |] %18
w: ||||

